pro/src/icons/stroke-party.svg

<svg width="48" height="48" viewBox="0 0 48 48" fill="none" xmlns="http://www.w3.org/2000/svg">
<path id="icon" fill="currentColor" fill-rule="evenodd" clip-rule="evenodd" d="M23.981 4.65016C23.6904 4.06926 22.9839 3.83393 22.403 4.12453C21.8221 4.41513 21.5868 5.12162 21.8774 5.70252C22.4878 6.92284 22.7052 7.37245 22.8127 7.80218C22.9161 8.21559 22.9239 8.63493 22.9239 9.85727C22.9239 10.5068 23.4505 11.0333 24.1 11.0333C24.7495 11.0333 25.2761 10.5068 25.2761 9.85727L25.2761 9.72962C25.2764 8.68126 25.2766 7.95908 25.0946 7.23142C24.9164 6.51913 24.5691 5.82523 24.0442 4.77645L24.0442 4.77641L23.981 4.65016ZM22.3436 20.3893C23.0579 20.3893 23.6726 19.9632 23.947 19.3514C24.3447 19.7241 24.7435 20.1098 25.1417 20.5078C26.6614 22.0267 28.0026 23.5536 29.1208 25.0005C28.7491 25.1796 28.39 25.3801 28.0452 25.6002C27.4977 25.9497 27.3371 26.6769 27.6866 27.2244C28.0361 27.7719 28.7633 27.9324 29.3108 27.5829C29.6948 27.3377 30.1006 27.1246 30.5244 26.9477C30.9008 27.5125 31.2348 28.0563 31.5233 28.5728C32.1773 29.7441 32.563 30.7148 32.705 31.4343C32.7755 31.7915 32.776 32.0383 32.7509 32.1936C32.7465 32.2206 32.7416 32.2436 32.7365 32.2631L32.2041 32.437C32.0806 32.4306 31.9333 32.4129 31.7601 32.3787C31.0401 32.2368 30.069 31.8514 28.8971 31.1976C26.568 29.8984 23.6839 27.6739 20.8279 24.8194C17.9718 21.9648 15.7462 19.0822 14.4463 16.7544C13.7922 15.5831 13.4066 14.6124 13.2646 13.8929C13.2335 13.7353 13.216 13.5991 13.2083 13.4829L13.3948 12.9134C13.411 12.9096 13.4292 12.9059 13.4498 12.9026C13.6051 12.8775 13.8521 12.878 14.2094 12.9485C14.9294 13.0904 15.9006 13.4759 17.0724 14.1296C18.3805 14.8593 19.8635 15.8807 21.4184 17.1417C20.9195 17.4513 20.5874 18.0039 20.5874 18.634C20.5874 19.6034 21.3737 20.3893 22.3436 20.3893ZM32.9518 26.3705C33.1768 26.7304 33.3857 27.083 33.5777 27.4268C34.29 28.7023 34.8038 29.918 35.0132 30.9792C35.2112 31.9821 35.1938 33.1727 34.3752 34.0091C34.2944 34.1076 34.1969 34.1937 34.0853 34.2625C33.6443 34.5906 33.1306 34.7399 32.6082 34.7794L4.73135 43.88L4.72743 43.8813C2.87633 44.4947 1.18647 42.7329 1.76444 40.9305L1.76634 40.9247L1.76635 40.9247L6.34589 26.8983C6.39598 26.525 6.48112 26.1671 6.60537 25.8319C6.82544 25.238 7.47431 24.9277 8.07116 25.1218C8.09924 25.1288 8.12728 25.1368 8.15521 25.1459C8.77267 25.3475 9.10979 26.0115 8.90819 26.6289L8.65713 27.3979C8.62026 27.8437 8.65182 28.3872 8.77982 29.0119C8.98823 30.0292 9.43595 31.1756 10.1356 32.302C10.1759 32.3668 10.2091 32.434 10.2354 32.5027L10.2374 32.5055C10.7099 33.1775 11.2798 33.828 11.9577 34.4288C14.4982 36.6805 17.2719 37.09 19.0118 36.7437L28.4962 33.6474C28.2504 33.5235 28.0016 33.3911 27.7504 33.251C25.1834 31.8189 22.1288 29.4452 19.1642 26.4822C16.1996 23.5191 13.8246 20.4662 12.3919 17.9004C12.254 17.6537 12.1237 17.4091 12.0015 17.1675L10.9452 20.3926C10.743 21.0099 10.0787 21.3464 9.46145 21.1442C8.84418 20.9421 8.50768 20.2778 8.70985 19.6605L10.859 13.0987C10.8989 12.4472 11.106 11.806 11.6137 11.2985C12.4515 10.4612 13.6536 10.442 14.6648 10.6414C15.7266 10.8508 16.9429 11.3643 18.2191 12.0762C20.7862 13.5083 23.8407 15.882 26.8053 18.8451C28.6029 20.6416 30.1836 22.4713 31.469 24.2053C32.1221 24.0707 32.798 23.9995 33.4901 23.9995C36.0069 23.9995 38.3285 24.9269 40.0938 26.4657C40.5834 26.8925 40.6343 27.6354 40.2075 28.125C39.7807 28.6146 39.0377 28.6656 38.5481 28.2387C37.1989 27.0626 35.4226 26.3517 33.4901 26.3517C33.3093 26.3517 33.1298 26.358 32.9518 26.3705ZM7.21998 31.7997C7.45852 32.3467 7.74212 32.8944 8.06979 33.4329C8.09853 33.5043 8.13631 33.5742 8.18344 33.6413C8.7472 34.4431 9.43035 35.2236 10.2465 35.947C11.4988 37.0569 12.8434 37.8313 14.1759 38.3224L4.0064 41.6423L7.21998 31.7997ZM45.1751 32.0917C45.8217 32.0917 46.3459 31.5677 46.3459 30.9214C46.3459 30.2751 45.8217 29.7512 45.1751 29.7512C44.5284 29.7512 44.0042 30.2751 44.0042 30.9214C44.0042 31.5677 44.5284 32.0917 45.1751 32.0917ZM32.3505 10.4128C32.4311 9.76831 31.9739 9.18048 31.3294 9.09988C30.6849 9.01927 30.0971 9.47641 30.0165 10.1209C29.7139 12.5402 28.7838 14.8441 27.355 16.7915C26.9707 17.3152 27.0838 18.0512 27.6075 18.4354C28.1312 18.8197 28.8672 18.7066 29.2514 18.1829C30.9136 15.9175 31.9974 13.2362 32.3505 10.4128ZM38.7356 18.0488C39.7055 18.0488 40.4918 17.263 40.4918 16.2935C40.4918 15.324 39.7055 14.5382 38.7356 14.5382C37.7656 14.5382 36.9793 15.324 36.9793 16.2935C36.9793 17.263 37.7656 18.0488 38.7356 18.0488ZM41.6625 11.0275C41.6625 11.6738 41.1383 12.1977 40.4917 12.1977C39.8451 12.1977 39.3208 11.6738 39.3208 11.0275C39.3208 10.3812 39.8451 9.85723 40.4917 9.85723C41.1383 9.85723 41.6625 10.3812 41.6625 11.0275Z" />
</svg>

<svg xmlns="http://www.w3.org/2000/svg" width="48" height="48" fill="none"><path id="icon" fill="currentColor" fill-rule="evenodd" d="M23.981 4.65a1.176 1.176 0 0 0-2.104 1.053c.61 1.22.828 1.67.936 2.1.103.413.11.832.11 2.054a1.176 1.176 0 0 0 2.353 0V9.73c0-1.049 0-1.77-.181-2.499-.179-.712-.526-1.406-1.05-2.455zm-1.637 15.74c.714 0 1.329-.427 1.603-1.039q.598.56 1.195 1.157A47.5 47.5 0 0 1 29.12 25q-.558.27-1.076.6a1.176 1.176 0 0 0 1.266 1.982q.577-.368 1.213-.635.565.848 1 1.625c.653 1.171 1.039 2.142 1.181 2.861.07.357.071.604.046.76l-.014.07-.533.173a3 3 0 0 1-.444-.058c-.72-.142-1.691-.528-2.863-1.181-2.329-1.3-5.213-3.524-8.07-6.379-2.855-2.854-5.08-5.737-6.38-8.065-.655-1.17-1.04-2.142-1.182-2.861a3 3 0 0 1-.057-.41l.187-.57.055-.01c.155-.026.402-.025.76.045.72.142 1.69.528 2.862 1.182 1.309.73 2.791 1.75 4.346 3.012a1.754 1.754 0 0 0 .926 3.247m10.608 5.98q.338.54.626 1.057c.712 1.275 1.226 2.491 1.435 3.552.198 1.003.18 2.194-.638 3.03q-.121.15-.29.254c-.44.328-.954.477-1.477.516L4.731 43.88l-.004.001c-1.85.614-3.54-1.148-2.963-2.95l.002-.006 4.58-14.027q.074-.56.26-1.066c.22-.594.868-.904 1.465-.71l.084.024c.618.201.955.866.753 1.483l-.25.769c-.038.446-.006.99.122 1.614.208 1.017.656 2.164 1.356 3.29q.06.098.1.2l.001.003a11 11 0 0 0 1.72 1.924c2.541 2.252 5.315 2.661 7.055 2.315l9.484-3.097a20 20 0 0 1-.746-.396c-2.567-1.432-5.621-3.806-8.586-6.769s-5.34-6.016-6.772-8.582a20 20 0 0 1-.39-.732l-1.057 3.225a1.176 1.176 0 0 1-2.235-.733l2.149-6.561c.04-.652.247-1.293.755-1.8.837-.838 2.04-.857 3.05-.658 1.063.21 2.279.723 3.555 1.435 2.567 1.432 5.622 3.806 8.586 6.77 1.798 1.796 3.379 3.625 4.664 5.36A10 10 0 0 1 33.49 24c2.517 0 4.838.927 6.604 2.466a1.176 1.176 0 1 1-1.546 1.773 7.68 7.68 0 0 0-5.596-1.869M7.22 31.8c.239.547.522 1.094.85 1.633q.043.107.113.208a13.3 13.3 0 0 0 2.063 2.306 12.4 12.4 0 0 0 3.93 2.375l-10.17 3.32zm37.955.292a1.17 1.17 0 1 0 0-2.341 1.17 1.17 0 0 0 0 2.34m-12.824-21.68a1.176 1.176 0 0 0-2.334-.291 14.3 14.3 0 0 1-2.662 6.67 1.176 1.176 0 1 0 1.896 1.392 16.66 16.66 0 0 0 3.1-7.77m6.385 7.637a1.756 1.756 0 1 0 0-3.512 1.756 1.756 0 0 0 0 3.512m2.927-7.021a1.17 1.17 0 1 1-2.341-.001 1.17 1.17 0 0 1 2.34 0" clip-rule="evenodd"/></svg>
